X: 73
T:Polka pique de Bethmale
M:2/4
L:1/8
Q:220
O:France
K:D
DF AG/2A/2|dA F2|AG E2|1GEFD:|2GF/2E/2 D2|
|:A2 d>A|AG FE|F2 B>A|AG F2:||
W:
W: From "Falaleiro" http://home.t-online.de/home/pheld/homepage.htm
